X:1371
T:Gånglåt efter Skommar Far
S:Efter [[!Pers Hans Olsson]] & [[!Anders Bjernulf]]
S:Efter Skommar Far
Z:[[http://www.bluerose.karenlmyers.org/IncipitsGanglat7.html|Karen Myers (#2315)]]
Z:Upptecknad 11/2003
M:2/4
L:1/16
R:Gånglåt
K:A
Ac |: e2ec e2a2 | efed c2Bc | d2dc B2B2 | efed c2Ac | e2ec e2a2 |
efed c2Bc | d2dB EGBG | A4- A2Ac :: e2e2 f2>f2 | e2ed c2Bc | d2dc B2B2 |
efed c2Ac | e2e2 f2>f2 | e2ed c2Bc | d2dB EGBG |1 A4- A2Ac :|2 A6 z2 |]
(:musicend:)

(:music:)
